svgs/sharp-solid/hand-back-point-ribbon.svg

<svg xmlns="http://www.w3.org/2000/svg" viewBox="0 0 448 512"><!--! Font Awesome Pro 6.6.0 by @fontawesome - https://fontawesome.com License - https://fontawesome.com/license (Commercial License) Copyright 2024 Fonticons, Inc. --><path d="M192 0l0 48 0 64 0 16-16 0-64 0-80 0L75.6 80 32 32l80 0 0-32 80 0zM112 224l0-64 80 0 0 16 80 0 0 32 80 0 0 32 80 0 0 80 0 48 0 16c0 70.7-57.3 128-128 128l-118.1 0c-37.4 0-73.7-13.1-102.4-37.1l-5.4-4.5C48.9 446.1 32 410 32 372l0-68 48-40 0 56 0 16 32 0 0-16 0-80 0-2.7 0-13.3z"/></svg>

<svg xmlns="http://www.w3.org/2000/svg" viewBox="0 0 448 512"><!--! Font Awesome Pro 6.4.0 by @fontawesome - https://fontawesome.com License - https://fontawesome.com/license (Commercial License) Copyright 2023 Fonticons, Inc. --><path d="M192 0V48v64 16H176 112 32L75.6 80 32 32h80V0h80zM112 224V160h80v16h80v32h80v32h80v80 48 16c0 70.7-57.3 128-128 128H185.9c-37.4 0-73.7-13.1-102.4-37.1l-5.4-4.5C48.9 446.1 32 410 32 372V304l48-40v56 16h32V320 240v-2.7V224z"/></svg>
